X: 1134
T: McMahons
C: San Ryan
M: 4/4
L: 1/8
R: hornpipe
K: G Major
|: GE |
DGBG cABG | DGBd gfga | bg ~g2 dgdB | cBAG FDcA |
DGBG cABG | DGBd gfga | bgfg dgdB | cAFA G2 :|
|: ga |
bggb agef | gfgd edBd | eB ~B2 eBgB | edcB AGEG |
DGBG cABG | DGBd gfga | bg ~g2 dedB | cAFA G2 :|
